src/images/svg/symbols/btc-xau.svg

<svg width="33" height="32" viewBox="0 0 33 32" fill="none" xmlns="http://www.w3.org/2000/svg">
<path d="M2.5 11C2.5 6.02944 6.52944 2 11.5 2C16.4706 2 20.5 6.02944 20.5 11C20.5 15.9706 16.4706 20 11.5 20C6.52944 20 2.5 15.9706 2.5 11Z" fill="#F7931A"/>
<path d="M15.5439 9.88625C15.7205 8.70725 14.8222 8.07331 13.5948 7.65031L13.9931 6.05281L13.0211 5.81094L12.6329 7.36625C12.3776 7.30212 12.1154 7.2425 11.8539 7.18287L12.2448 5.61744L11.2728 5.375L10.8746 6.97194C10.6631 6.92356 10.4549 6.87631 10.2536 6.82569L10.2547 6.82062L8.91369 6.48594L8.65494 7.52431C8.65494 7.52431 9.37663 7.68969 9.36144 7.69981C9.75519 7.79825 9.82607 8.05869 9.81425 8.26569L9.36088 10.0854C9.38788 10.0921 9.42275 10.1023 9.46213 10.1174L9.35919 10.0921L8.72357 12.6414C8.67519 12.7606 8.55313 12.9401 8.2775 12.872C8.28763 12.8861 7.571 12.6959 7.571 12.6959L7.08838 13.8086L8.354 14.1241C8.58913 14.1832 8.81975 14.2451 9.04644 14.303L8.64425 15.9185L9.61569 16.1604L10.0139 14.5629C10.2794 14.6343 10.5371 14.7007 10.7891 14.7637L10.3919 16.3544L11.3639 16.5963L11.7661 14.9842C13.4244 15.2981 14.6709 15.1715 15.1957 13.6719C15.6187 12.4648 15.1749 11.7678 14.3024 11.3139C14.9381 11.1676 15.4162 10.7497 15.5439 9.88625ZM13.322 13.0014C13.0222 14.2091 10.9888 13.556 10.3295 13.3923L10.8639 11.252C11.5231 11.4168 13.6364 11.7425 13.322 13.0014ZM13.6229 9.86881C13.349 10.9674 11.657 10.4088 11.1086 10.2721L11.5923 8.3315C12.1408 8.46819 13.9087 8.723 13.6229 9.86881Z" fill="white"/>
<g clip-path="url(#clip0_10352_37564)">
<circle cx="21.5" cy="21" r="9" fill="#FFDA5B"/>
<path d="M27.2381 14.0661C26.8473 13.7424 26.4288 13.4511 25.9866 13.1963L13.6963 25.4866C13.9511 25.9288 14.2424 26.3473 14.5661 26.7381L27.2381 14.0661Z" fill="#FDF1CA"/>
<path d="M16.8435 28.7033C16.1936 28.3096 15.5975 27.836 15.0688 27.296L27.796 14.5688C28.336 15.0975 28.8096 15.6936 29.2033 16.3435L16.8435 28.7033Z" fill="#FDF1CA"/>
<path d="M19.4728 29.7708C19.1916 29.706 18.9155 29.6281 18.6451 29.5378L30.0378 18.1451C30.1281 18.4155 30.206 18.6916 30.2708 18.9728L19.4728 29.7708Z" fill="#FDF1CA"/>
<g clip-path="url(#clip1_10352_37564)">
<circle cx="21.5" cy="21" r="7.3125" fill="#FFC329"/>
<path d="M21.5001 28.3126C25.5387 28.3126 28.8126 25.0386 28.8126 21.0001C28.8126 19.7606 28.5043 18.5932 27.9601 17.5703C23.2002 18.9484 19.4484 22.7001 18.0703 27.46C19.0932 28.0042 20.2607 28.3126 21.5001 28.3126Z" fill="#F8B712"/>
</g>
<path d="M26.9444 16.1181C25.6498 14.9566 23.9387 14.25 22.0625 14.25C18.0239 14.25 14.75 17.5239 14.75 21.5625C14.75 23.4387 15.4566 25.1498 16.6181 26.4444C15.1261 25.1056 14.1875 23.1624 14.1875 21C14.1875 16.9614 17.4614 13.6875 21.5 13.6875C23.6624 13.6875 25.6056 14.6261 26.9444 16.1181Z" fill="#DB9E43"/>
</g>
<defs>
<clipPath id="clip0_10352_37564">
<path d="M12.5 21C12.5 16.0294 16.5294 12 21.5 12C26.4706 12 30.5 16.0294 30.5 21C30.5 25.9706 26.4706 30 21.5 30C16.5294 30 12.5 25.9706 12.5 21Z" fill="white"/>
</clipPath>
<clipPath id="clip1_10352_37564">
<rect x="14.1875" y="13.6875" width="14.625" height="14.625" rx="7.3125" fill="white"/>
</clipPath>
</defs>
</svg>

<svg width="33" height="32" fill="none" xmlns="http://www.w3.org/2000/svg"><path d="M2.5 11a9 9 0 1 1 18 0 9 9 0 0 1-18 0Z" fill="#F7931A"/><path d="M15.544 9.886c.176-1.179-.722-1.813-1.95-2.236l.4-1.597-.973-.242-.388 1.555c-.255-.064-.518-.123-.78-.183l.392-1.566-.972-.242-.398 1.597c-.212-.048-.42-.096-.621-.146V6.82l-1.34-.335-.26 1.038s.723.166.707.176c.394.098.465.359.453.566l-.453 1.82a.87.87 0 0 1 .101.031l-.103-.025-.635 2.55c-.049.119-.17.298-.447.23.01.014-.706-.176-.706-.176l-.483 1.113 1.266.315.692.179-.402 1.615.972.242.398-1.597c.265.071.523.138.775.2l-.397 1.591.972.242.402-1.612c1.658.314 2.905.188 3.43-1.312.423-1.207-.021-1.904-.894-2.358.636-.146 1.114-.564 1.242-1.428Zm-2.222 3.115c-.3 1.208-2.333.555-2.992.391l.534-2.14c.66.165 2.772.49 2.458 1.75Zm.3-3.132c-.273 1.098-1.965.54-2.513.403l.483-1.94c.549.136 2.317.391 2.03 1.537Z" fill="#fff"/><g clip-path="url(#a)"><circle cx="21.5" cy="21" r="9" fill="#FFDA5B"/><path d="M27.238 14.066a9.028 9.028 0 0 0-1.251-.87l-12.29 12.29c.254.443.545.861.87 1.252l12.671-12.672ZM16.843 28.703a9.039 9.039 0 0 1-1.774-1.407l12.727-12.727a9.039 9.039 0 0 1 1.407 1.774l-12.36 12.36ZM19.473 29.77a8.976 8.976 0 0 1-.828-.232l11.393-11.393c.09.27.168.547.233.828L19.473 29.77Z" fill="#FDF1CA"/><g clip-path="url(#b)"><circle cx="21.5" cy="21" r="7.313" fill="#FFC329"/><path d="M21.5 28.313a7.313 7.313 0 0 0 6.46-10.743 14.53 14.53 0 0 0-9.89 9.89 7.28 7.28 0 0 0 3.43.853Z" fill="#F8B712"/></g><path d="M26.944 16.118a7.312 7.312 0 0 0-10.326 10.326 7.312 7.312 0 1 1 10.326-10.326Z" fill="#DB9E43"/></g><defs><clipPath id="a"><path d="M12.5 21a9 9 0 1 1 18 0 9 9 0 0 1-18 0Z" fill="#fff"/></clipPath><clipPath id="b"><rect x="14.188" y="13.688" width="14.625" height="14.625" rx="7.313" fill="#fff"/></clipPath></defs></svg>
